X: 1
T: Para Handy Theme
M: 6/8
L: 1/8
R: jig
K: Gmaj
|DDD DEG|B2d BAG|G2g edB|deg b2a|
|age ggg|edB deg|age edB|dBA A3:||
|DDD A2B|cBA BGE|DDD A2F|GAF GED|
|DDD A2B|cBA BGE|GGG GDA|DDD DAF:||
